X: 2
M: 6/8
L: 1/8
K: G
d |\
g2g f2f |
e2e d2d | c2c B2B | A>GA G2d |\
g2g f2f | e2e d2d | c2c B2B | A>GA G2 :: d |\
geg fdf | e2e e2a |\
f2d e2a | f2d e2a | fgf e>de | d2d d2a |\
f2d e2a | f2d e2a | fgf e>de |
d2d d2 :: d |\
!p!dBd cAc | BGB A2d | dBd cAc | BGB A2d |\
!f!g2G GAG | G2G G2G | AcB AGF | G2G G2 :|


